(Generated by PartKam Version 0.05)
G54
G20 G90 G40

(pocket 1)
G0 Z0.25
T0 M6
G17
M3
G0 X2.4051 Y0.465
G1 Z-0.05 F8
G2 X2.4016 Y0.4564 I-0.1524 J0.0563 F12
G2 X2.4051 Y0.4477 I-0.1489 J-0.065
G3 X2.4095 Y0.4402 I0.0234 J0.0087
G3 X2.4162 Y0.4347 I0.0191 J0.0162
G3 X2.4243 Y0.4317 I0.0124 J0.0217
G3 X2.433 Y0.4318 I0.0043 J0.0246
G3 X2.4411 Y0.4348 I-0.0044 J0.0246
G3 X2.4477 Y0.4403 I-0.0125 J0.0216
G3 X2.4521 Y0.4478 I-0.0192 J0.016
G3 X2.4536 Y0.4564 I-0.0235 J0.0085
G3 X2.4521 Y0.4649 I-0.025 J0
G3 X2.4477 Y0.4724 I-0.0235 J-0.0085
G3 X2.4411 Y0.478 I-0.0192 J-0.016
G3 X2.433 Y0.481 I-0.0125 J-0.0216
G3 X2.4243 Y0.481 I-0.0044 J-0.0246
G3 X2.4162 Y0.4781 I0.0043 J-0.0246
G3 X2.4095 Y0.4725 I0.0124 J-0.0217
G3 X2.4051 Y0.465 I0.0191 J-0.0162
G1 X2.3582 Y0.4824 F12
G2 X2.3445 Y0.4564 I-0.1055 J0.039 F12
G2 X2.3582 Y0.4304 I-0.0918 J-0.065
G3 X2.3713 Y0.4079 I0.0703 J0.026
G3 X2.3913 Y0.3913 I0.0572 J0.0485
G3 X2.4158 Y0.3825 I0.0373 J0.0651
G3 X2.4418 Y0.3826 I0.0128 J0.0739
G3 X2.4662 Y0.3915 I-0.0132 J0.0738
G3 X2.4861 Y0.4082 I-0.0376 J0.0649
G3 X2.4991 Y0.4308 I-0.0575 J0.0481
G3 X2.5036 Y0.4564 I-0.0705 J0.0256
G3 X2.4991 Y0.482 I-0.075 J0
G3 X2.4861 Y0.5045 I-0.0705 J-0.0256
G3 X2.4662 Y0.5213 I-0.0575 J-0.0481
G3 X2.4418 Y0.5302 I-0.0376 J-0.0649
G3 X2.4158 Y0.5303 I-0.0132 J-0.0738
G3 X2.3913 Y0.5215 I0.0128 J-0.0739
G3 X2.3713 Y0.5048 I0.0373 J-0.0651
G3 X2.3582 Y0.4824 I0.0572 J-0.0485
G1 X2.3113 Y0.4997 F12
G2 X2.2527 Y0.4589 I-0.0586 J0.0217 F12
G1 X0.5353 Y0.4589
G2 X0.482 Y0.4889 I0 J0.0625
G3 X0.4666 Y0.506 I-0.0534 J-0.0325
G3 X0.446 Y0.5164 I-0.038 J-0.0496
G3 X0.4231 Y0.5186 I-0.0174 J-0.06
G3 X0.4009 Y0.5124 I0.0055 J-0.0623
G3 X0.3825 Y0.4986 I0.0277 J-0.056
G3 X0.3703 Y0.479 I0.0461 J-0.0422
G3 X0.3661 Y0.4564 I0.0583 J-0.0226
G3 X0.3703 Y0.4337 I0.0625 J0
G3 X0.3825 Y0.4142 I0.0583 J0.0226
G3 X0.4009 Y0.4003 I0.0461 J0.0422
G3 X0.4231 Y0.3941 I0.0277 J0.056
G3 X0.446 Y0.3964 I0.0055 J0.0623
G3 X0.4666 Y0.4068 I-0.0174 J0.06
G3 X0.482 Y0.4239 I-0.038 J0.0496
G2 X0.5353 Y0.4539 I0.0534 J-0.0325
G1 X2.2527 Y0.4539
G2 X2.3113 Y0.413 I0 J-0.0625
G3 X2.3332 Y0.3756 I0.1172 J0.0433
G3 X2.3665 Y0.3479 I0.0954 J0.0808
G3 X2.4072 Y0.3332 I0.0621 J0.1085
G3 X2.4506 Y0.3333 I0.0213 J0.1232
G3 X2.4913 Y0.3482 I-0.022 J0.123
G3 X2.5244 Y0.3762 I-0.0627 J0.1081
G3 X2.5461 Y0.4137 I-0.0959 J0.0802
G3 X2.5536 Y0.4564 I-0.1175 J0.0427
G3 X2.5461 Y0.4991 I-0.125 J0
G3 X2.5244 Y0.5366 I-0.1175 J-0.0427
G3 X2.4913 Y0.5645 I-0.0959 J-0.0802
G3 X2.4506 Y0.5794 I-0.0627 J-0.1081
G3 X2.4072 Y0.5795 I-0.022 J-0.123
G3 X2.3665 Y0.5649 I0.0213 J-0.1232
G3 X2.3332 Y0.5371 I0.0621 J-0.1085
G3 X2.3113 Y0.4997 I0.0954 J-0.0808
G0 Z0.25
G0 X0.4435 Y0.4564
G1 Z-0.05 F8
G2 X0.4392 Y0.4629 I0.0918 J0.065 F12
G3 X0.4362 Y0.4663 I-0.0107 J-0.0065
G3 X0.4321 Y0.4684 I-0.0076 J-0.0099
G3 X0.4275 Y0.4688 I-0.0035 J-0.012
G3 X0.423 Y0.4676 I0.0011 J-0.0125
G3 X0.4194 Y0.4648 I0.0055 J-0.0112
G3 X0.4169 Y0.4609 I0.0092 J-0.0084
G3 X0.4161 Y0.4564 I0.0117 J-0.0045
G3 X0.4169 Y0.4519 I0.0125 J0
G3 X0.4194 Y0.4479 I0.0117 J0.0045
G3 X0.423 Y0.4452 I0.0092 J0.0084
G3 X0.4275 Y0.4439 I0.0055 J0.0112
G3 X0.4321 Y0.4444 I0.0011 J0.0125
G3 X0.4362 Y0.4465 I-0.0035 J0.012
G3 X0.4392 Y0.4499 I-0.0076 J0.0099
G2 X0.4435 Y0.4564 I0.0961 J-0.0585
G0 Z0.25
G0 X2.4051 Y0.465
G1 Z-0.1 F8
G2 X2.4016 Y0.4564 I-0.1524 J0.0563 F12
G2 X2.4051 Y0.4477 I-0.1489 J-0.065
G3 X2.4095 Y0.4402 I0.0234 J0.0087
G3 X2.4162 Y0.4347 I0.0191 J0.0162
G3 X2.4243 Y0.4317 I0.0124 J0.0217
G3 X2.433 Y0.4318 I0.0043 J0.0246
G3 X2.4411 Y0.4348 I-0.0044 J0.0246
G3 X2.4477 Y0.4403 I-0.0125 J0.0216
G3 X2.4521 Y0.4478 I-0.0192 J0.016
G3 X2.4536 Y0.4564 I-0.0235 J0.0085
G3 X2.4521 Y0.4649 I-0.025 J0
G3 X2.4477 Y0.4724 I-0.0235 J-0.0085
G3 X2.4411 Y0.478 I-0.0192 J-0.016
G3 X2.433 Y0.481 I-0.0125 J-0.0216
G3 X2.4243 Y0.481 I-0.0044 J-0.0246
G3 X2.4162 Y0.4781 I0.0043 J-0.0246
G3 X2.4095 Y0.4725 I0.0124 J-0.0217
G3 X2.4051 Y0.465 I0.0191 J-0.0162
G1 X2.3582 Y0.4824 F12
G2 X2.3445 Y0.4564 I-0.1055 J0.039 F12
G2 X2.3582 Y0.4304 I-0.0918 J-0.065
G3 X2.3713 Y0.4079 I0.0703 J0.026
G3 X2.3913 Y0.3913 I0.0572 J0.0485
G3 X2.4158 Y0.3825 I0.0373 J0.0651
G3 X2.4418 Y0.3826 I0.0128 J0.0739
G3 X2.4662 Y0.3915 I-0.0132 J0.0738
G3 X2.4861 Y0.4082 I-0.0376 J0.0649
G3 X2.4991 Y0.4308 I-0.0575 J0.0481
G3 X2.5036 Y0.4564 I-0.0705 J0.0256
G3 X2.4991 Y0.482 I-0.075 J0
G3 X2.4861 Y0.5045 I-0.0705 J-0.0256
G3 X2.4662 Y0.5213 I-0.0575 J-0.0481
G3 X2.4418 Y0.5302 I-0.0376 J-0.0649
G3 X2.4158 Y0.5303 I-0.0132 J-0.0738
G3 X2.3913 Y0.5215 I0.0128 J-0.0739
G3 X2.3713 Y0.5048 I0.0373 J-0.0651
G3 X2.3582 Y0.4824 I0.0572 J-0.0485
G1 X2.3113 Y0.4997 F12
G2 X2.2527 Y0.4589 I-0.0586 J0.0217 F12
G1 X0.5353 Y0.4589
G2 X0.482 Y0.4889 I0 J0.0625
G3 X0.4666 Y0.506 I-0.0534 J-0.0325
G3 X0.446 Y0.5164 I-0.038 J-0.0496
G3 X0.4231 Y0.5186 I-0.0174 J-0.06
G3 X0.4009 Y0.5124 I0.0055 J-0.0623
G3 X0.3825 Y0.4986 I0.0277 J-0.056
G3 X0.3703 Y0.479 I0.0461 J-0.0422
G3 X0.3661 Y0.4564 I0.0583 J-0.0226
G3 X0.3703 Y0.4337 I0.0625 J0
G3 X0.3825 Y0.4142 I0.0583 J0.0226
G3 X0.4009 Y0.4003 I0.0461 J0.0422
G3 X0.4231 Y0.3941 I0.0277 J0.056
G3 X0.446 Y0.3964 I0.0055 J0.0623
G3 X0.4666 Y0.4068 I-0.0174 J0.06
G3 X0.482 Y0.4239 I-0.038 J0.0496
G2 X0.5353 Y0.4539 I0.0534 J-0.0325
G1 X2.2527 Y0.4539
G2 X2.3113 Y0.413 I0 J-0.0625
G3 X2.3332 Y0.3756 I0.1172 J0.0433
G3 X2.3665 Y0.3479 I0.0954 J0.0808
G3 X2.4072 Y0.3332 I0.0621 J0.1085
G3 X2.4506 Y0.3333 I0.0213 J0.1232
G3 X2.4913 Y0.3482 I-0.022 J0.123
G3 X2.5244 Y0.3762 I-0.0627 J0.1081
G3 X2.5461 Y0.4137 I-0.0959 J0.0802
G3 X2.5536 Y0.4564 I-0.1175 J0.0427
G3 X2.5461 Y0.4991 I-0.125 J0
G3 X2.5244 Y0.5366 I-0.1175 J-0.0427
G3 X2.4913 Y0.5645 I-0.0959 J-0.0802
G3 X2.4506 Y0.5794 I-0.0627 J-0.1081
G3 X2.4072 Y0.5795 I-0.022 J-0.123
G3 X2.3665 Y0.5649 I0.0213 J-0.1232
G3 X2.3332 Y0.5371 I0.0621 J-0.1085
G3 X2.3113 Y0.4997 I0.0954 J-0.0808
G0 Z0.25
G0 X0.4435 Y0.4564
G1 Z-0.1 F8
G2 X0.4392 Y0.4629 I0.0918 J0.065 F12
G3 X0.4362 Y0.4663 I-0.0107 J-0.0065
G3 X0.4321 Y0.4684 I-0.0076 J-0.0099
G3 X0.4275 Y0.4688 I-0.0035 J-0.012
G3 X0.423 Y0.4676 I0.0011 J-0.0125
G3 X0.4194 Y0.4648 I0.0055 J-0.0112
G3 X0.4169 Y0.4609 I0.0092 J-0.0084
G3 X0.4161 Y0.4564 I0.0117 J-0.0045
G3 X0.4169 Y0.4519 I0.0125 J0
G3 X0.4194 Y0.4479 I0.0117 J0.0045
G3 X0.423 Y0.4452 I0.0092 J0.0084
G3 X0.4275 Y0.4439 I0.0055 J0.0112
G3 X0.4321 Y0.4444 I0.0011 J0.0125
G3 X0.4362 Y0.4465 I-0.0035 J0.012
G3 X0.4392 Y0.4499 I-0.0076 J0.0099
G2 X0.4435 Y0.4564 I0.0961 J-0.0585
G0 Z0.25
G0 X2.4051 Y0.465
G1 Z-0.15 F8
G2 X2.4016 Y0.4564 I-0.1524 J0.0563 F12
G2 X2.4051 Y0.4477 I-0.1489 J-0.065
G3 X2.4095 Y0.4402 I0.0234 J0.0087
G3 X2.4162 Y0.4347 I0.0191 J0.0162
G3 X2.4243 Y0.4317 I0.0124 J0.0217
G3 X2.433 Y0.4318 I0.0043 J0.0246
G3 X2.4411 Y0.4348 I-0.0044 J0.0246
G3 X2.4477 Y0.4403 I-0.0125 J0.0216
G3 X2.4521 Y0.4478 I-0.0192 J0.016
G3 X2.4536 Y0.4564 I-0.0235 J0.0085
G3 X2.4521 Y0.4649 I-0.025 J0
G3 X2.4477 Y0.4724 I-0.0235 J-0.0085
G3 X2.4411 Y0.478 I-0.0192 J-0.016
G3 X2.433 Y0.481 I-0.0125 J-0.0216
G3 X2.4243 Y0.481 I-0.0044 J-0.0246
G3 X2.4162 Y0.4781 I0.0043 J-0.0246
G3 X2.4095 Y0.4725 I0.0124 J-0.0217
G3 X2.4051 Y0.465 I0.0191 J-0.0162
G1 X2.3582 Y0.4824 F12
G2 X2.3445 Y0.4564 I-0.1055 J0.039 F12
G2 X2.3582 Y0.4304 I-0.0918 J-0.065
G3 X2.3713 Y0.4079 I0.0703 J0.026
G3 X2.3913 Y0.3913 I0.0572 J0.0485
G3 X2.4158 Y0.3825 I0.0373 J0.0651
G3 X2.4418 Y0.3826 I0.0128 J0.0739
G3 X2.4662 Y0.3915 I-0.0132 J0.0738
G3 X2.4861 Y0.4082 I-0.0376 J0.0649
G3 X2.4991 Y0.4308 I-0.0575 J0.0481
G3 X2.5036 Y0.4564 I-0.0705 J0.0256
G3 X2.4991 Y0.482 I-0.075 J0
G3 X2.4861 Y0.5045 I-0.0705 J-0.0256
G3 X2.4662 Y0.5213 I-0.0575 J-0.0481
G3 X2.4418 Y0.5302 I-0.0376 J-0.0649
G3 X2.4158 Y0.5303 I-0.0132 J-0.0738
G3 X2.3913 Y0.5215 I0.0128 J-0.0739
G3 X2.3713 Y0.5048 I0.0373 J-0.0651
G3 X2.3582 Y0.4824 I0.0572 J-0.0485
G1 X2.3113 Y0.4997 F12
G2 X2.2527 Y0.4589 I-0.0586 J0.0217 F12
G1 X0.5353 Y0.4589
G2 X0.482 Y0.4889 I0 J0.0625
G3 X0.4666 Y0.506 I-0.0534 J-0.0325
G3 X0.446 Y0.5164 I-0.038 J-0.0496
G3 X0.4231 Y0.5186 I-0.0174 J-0.06
G3 X0.4009 Y0.5124 I0.0055 J-0.0623
G3 X0.3825 Y0.4986 I0.0277 J-0.056
G3 X0.3703 Y0.479 I0.0461 J-0.0422
G3 X0.3661 Y0.4564 I0.0583 J-0.0226
G3 X0.3703 Y0.4337 I0.0625 J0
G3 X0.3825 Y0.4142 I0.0583 J0.0226
G3 X0.4009 Y0.4003 I0.0461 J0.0422
G3 X0.4231 Y0.3941 I0.0277 J0.056
G3 X0.446 Y0.3964 I0.0055 J0.0623
G3 X0.4666 Y0.4068 I-0.0174 J0.06
G3 X0.482 Y0.4239 I-0.038 J0.0496
G2 X0.5353 Y0.4539 I0.0534 J-0.0325
G1 X2.2527 Y0.4539
G2 X2.3113 Y0.413 I0 J-0.0625
G3 X2.3332 Y0.3756 I0.1172 J0.0433
G3 X2.3665 Y0.3479 I0.0954 J0.0808
G3 X2.4072 Y0.3332 I0.0621 J0.1085
G3 X2.4506 Y0.3333 I0.0213 J0.1232
G3 X2.4913 Y0.3482 I-0.022 J0.123
G3 X2.5244 Y0.3762 I-0.0627 J0.1081
G3 X2.5461 Y0.4137 I-0.0959 J0.0802
G3 X2.5536 Y0.4564 I-0.1175 J0.0427
G3 X2.5461 Y0.4991 I-0.125 J0
G3 X2.5244 Y0.5366 I-0.1175 J-0.0427
G3 X2.4913 Y0.5645 I-0.0959 J-0.0802
G3 X2.4506 Y0.5794 I-0.0627 J-0.1081
G3 X2.4072 Y0.5795 I-0.022 J-0.123
G3 X2.3665 Y0.5649 I0.0213 J-0.1232
G3 X2.3332 Y0.5371 I0.0621 J-0.1085
G3 X2.3113 Y0.4997 I0.0954 J-0.0808
G0 Z0.25
G0 X0.4435 Y0.4564
G1 Z-0.15 F8
G2 X0.4392 Y0.4629 I0.0918 J0.065 F12
G3 X0.4362 Y0.4663 I-0.0107 J-0.0065
G3 X0.4321 Y0.4684 I-0.0076 J-0.0099
G3 X0.4275 Y0.4688 I-0.0035 J-0.012
G3 X0.423 Y0.4676 I0.0011 J-0.0125
G3 X0.4194 Y0.4648 I0.0055 J-0.0112
G3 X0.4169 Y0.4609 I0.0092 J-0.0084
G3 X0.4161 Y0.4564 I0.0117 J-0.0045
G3 X0.4169 Y0.4519 I0.0125 J0
G3 X0.4194 Y0.4479 I0.0117 J0.0045
G3 X0.423 Y0.4452 I0.0092 J0.0084
G3 X0.4275 Y0.4439 I0.0055 J0.0112
G3 X0.4321 Y0.4444 I0.0011 J0.0125
G3 X0.4362 Y0.4465 I-0.0035 J0.012
G3 X0.4392 Y0.4499 I-0.0076 J0.0099
G2 X0.4435 Y0.4564 I0.0961 J-0.0585
G0 Z0.25
G0 X2.4051 Y0.465
G1 Z-0.2 F8
G2 X2.4016 Y0.4564 I-0.1524 J0.0563 F12
G2 X2.4051 Y0.4477 I-0.1489 J-0.065
G3 X2.4095 Y0.4402 I0.0234 J0.0087
G3 X2.4162 Y0.4347 I0.0191 J0.0162
G3 X2.4243 Y0.4317 I0.0124 J0.0217
G3 X2.433 Y0.4318 I0.0043 J0.0246
G3 X2.4411 Y0.4348 I-0.0044 J0.0246
G3 X2.4477 Y0.4403 I-0.0125 J0.0216
G3 X2.4521 Y0.4478 I-0.0192 J0.016
G3 X2.4536 Y0.4564 I-0.0235 J0.0085
G3 X2.4521 Y0.4649 I-0.025 J0
G3 X2.4477 Y0.4724 I-0.0235 J-0.0085
G3 X2.4411 Y0.478 I-0.0192 J-0.016
G3 X2.433 Y0.481 I-0.0125 J-0.0216
G3 X2.4243 Y0.481 I-0.0044 J-0.0246
G3 X2.4162 Y0.4781 I0.0043 J-0.0246
G3 X2.4095 Y0.4725 I0.0124 J-0.0217
G3 X2.4051 Y0.465 I0.0191 J-0.0162
G1 X2.3582 Y0.4824 F12
G2 X2.3445 Y0.4564 I-0.1055 J0.039 F12
G2 X2.3582 Y0.4304 I-0.0918 J-0.065
G3 X2.3713 Y0.4079 I0.0703 J0.026
G3 X2.3913 Y0.3913 I0.0572 J0.0485
G3 X2.4158 Y0.3825 I0.0373 J0.0651
G3 X2.4418 Y0.3826 I0.0128 J0.0739
G3 X2.4662 Y0.3915 I-0.0132 J0.0738
G3 X2.4861 Y0.4082 I-0.0376 J0.0649
G3 X2.4991 Y0.4308 I-0.0575 J0.0481
G3 X2.5036 Y0.4564 I-0.0705 J0.0256
G3 X2.4991 Y0.482 I-0.075 J0
G3 X2.4861 Y0.5045 I-0.0705 J-0.0256
G3 X2.4662 Y0.5213 I-0.0575 J-0.0481
G3 X2.4418 Y0.5302 I-0.0376 J-0.0649
G3 X2.4158 Y0.5303 I-0.0132 J-0.0738
G3 X2.3913 Y0.5215 I0.0128 J-0.0739
G3 X2.3713 Y0.5048 I0.0373 J-0.0651
G3 X2.3582 Y0.4824 I0.0572 J-0.0485
G1 X2.3113 Y0.4997 F12
G2 X2.2527 Y0.4589 I-0.0586 J0.0217 F12
G1 X0.5353 Y0.4589
G2 X0.482 Y0.4889 I0 J0.0625
G3 X0.4666 Y0.506 I-0.0534 J-0.0325
G3 X0.446 Y0.5164 I-0.038 J-0.0496
G3 X0.4231 Y0.5186 I-0.0174 J-0.06
G3 X0.4009 Y0.5124 I0.0055 J-0.0623
G3 X0.3825 Y0.4986 I0.0277 J-0.056
G3 X0.3703 Y0.479 I0.0461 J-0.0422
G3 X0.3661 Y0.4564 I0.0583 J-0.0226
G3 X0.3703 Y0.4337 I0.0625 J0
G3 X0.3825 Y0.4142 I0.0583 J0.0226
G3 X0.4009 Y0.4003 I0.0461 J0.0422
G3 X0.4231 Y0.3941 I0.0277 J0.056
G3 X0.446 Y0.3964 I0.0055 J0.0623
G3 X0.4666 Y0.4068 I-0.0174 J0.06
G3 X0.482 Y0.4239 I-0.038 J0.0496
G2 X0.5353 Y0.4539 I0.0534 J-0.0325
G1 X2.2527 Y0.4539
G2 X2.3113 Y0.413 I0 J-0.0625
G3 X2.3332 Y0.3756 I0.1172 J0.0433
G3 X2.3665 Y0.3479 I0.0954 J0.0808
G3 X2.4072 Y0.3332 I0.0621 J0.1085
G3 X2.4506 Y0.3333 I0.0213 J0.1232
G3 X2.4913 Y0.3482 I-0.022 J0.123
G3 X2.5244 Y0.3762 I-0.0627 J0.1081
G3 X2.5461 Y0.4137 I-0.0959 J0.0802
G3 X2.5536 Y0.4564 I-0.1175 J0.0427
G3 X2.5461 Y0.4991 I-0.125 J0
G3 X2.5244 Y0.5366 I-0.1175 J-0.0427
G3 X2.4913 Y0.5645 I-0.0959 J-0.0802
G3 X2.4506 Y0.5794 I-0.0627 J-0.1081
G3 X2.4072 Y0.5795 I-0.022 J-0.123
G3 X2.3665 Y0.5649 I0.0213 J-0.1232
G3 X2.3332 Y0.5371 I0.0621 J-0.1085
G3 X2.3113 Y0.4997 I0.0954 J-0.0808
G0 Z0.25
G0 X0.4435 Y0.4564
G1 Z-0.2 F8
G2 X0.4392 Y0.4629 I0.0918 J0.065 F12
G3 X0.4362 Y0.4663 I-0.0107 J-0.0065
G3 X0.4321 Y0.4684 I-0.0076 J-0.0099
G3 X0.4275 Y0.4688 I-0.0035 J-0.012
G3 X0.423 Y0.4676 I0.0011 J-0.0125
G3 X0.4194 Y0.4648 I0.0055 J-0.0112
G3 X0.4169 Y0.4609 I0.0092 J-0.0084
G3 X0.4161 Y0.4564 I0.0117 J-0.0045
G3 X0.4169 Y0.4519 I0.0125 J0
G3 X0.4194 Y0.4479 I0.0117 J0.0045
G3 X0.423 Y0.4452 I0.0092 J0.0084
G3 X0.4275 Y0.4439 I0.0055 J0.0112
G3 X0.4321 Y0.4444 I0.0011 J0.0125
G3 X0.4362 Y0.4465 I-0.0035 J0.012
G3 X0.4392 Y0.4499 I-0.0076 J0.0099
G2 X0.4435 Y0.4564 I0.0961 J-0.0585
G0 Z0.25
G0 X2.4051 Y0.465
G1 Z-0.25 F8
G2 X2.4016 Y0.4564 I-0.1524 J0.0563 F12
G2 X2.4051 Y0.4477 I-0.1489 J-0.065
G3 X2.4095 Y0.4402 I0.0234 J0.0087
G3 X2.4162 Y0.4347 I0.0191 J0.0162
G3 X2.4243 Y0.4317 I0.0124 J0.0217
G3 X2.433 Y0.4318 I0.0043 J0.0246
G3 X2.4411 Y0.4348 I-0.0044 J0.0246
G3 X2.4477 Y0.4403 I-0.0125 J0.0216
G3 X2.4521 Y0.4478 I-0.0192 J0.016
G3 X2.4536 Y0.4564 I-0.0235 J0.0085
G3 X2.4521 Y0.4649 I-0.025 J0
G3 X2.4477 Y0.4724 I-0.0235 J-0.0085
G3 X2.4411 Y0.478 I-0.0192 J-0.016
G3 X2.433 Y0.481 I-0.0125 J-0.0216
G3 X2.4243 Y0.481 I-0.0044 J-0.0246
G3 X2.4162 Y0.4781 I0.0043 J-0.0246
G3 X2.4095 Y0.4725 I0.0124 J-0.0217
G3 X2.4051 Y0.465 I0.0191 J-0.0162
G1 X2.3582 Y0.4824 F12
G2 X2.3445 Y0.4564 I-0.1055 J0.039 F12
G2 X2.3582 Y0.4304 I-0.0918 J-0.065
G3 X2.3713 Y0.4079 I0.0703 J0.026
G3 X2.3913 Y0.3913 I0.0572 J0.0485
G3 X2.4158 Y0.3825 I0.0373 J0.0651
G3 X2.4418 Y0.3826 I0.0128 J0.0739
G3 X2.4662 Y0.3915 I-0.0132 J0.0738
G3 X2.4861 Y0.4082 I-0.0376 J0.0649
G3 X2.4991 Y0.4308 I-0.0575 J0.0481
G3 X2.5036 Y0.4564 I-0.0705 J0.0256
G3 X2.4991 Y0.482 I-0.075 J0
G3 X2.4861 Y0.5045 I-0.0705 J-0.0256
G3 X2.4662 Y0.5213 I-0.0575 J-0.0481
G3 X2.4418 Y0.5302 I-0.0376 J-0.0649
G3 X2.4158 Y0.5303 I-0.0132 J-0.0738
G3 X2.3913 Y0.5215 I0.0128 J-0.0739
G3 X2.3713 Y0.5048 I0.0373 J-0.0651
G3 X2.3582 Y0.4824 I0.0572 J-0.0485
G1 X2.3113 Y0.4997 F12
G2 X2.2527 Y0.4589 I-0.0586 J0.0217 F12
G1 X0.5353 Y0.4589
G2 X0.482 Y0.4889 I0 J0.0625
G3 X0.4666 Y0.506 I-0.0534 J-0.0325
G3 X0.446 Y0.5164 I-0.038 J-0.0496
G3 X0.4231 Y0.5186 I-0.0174 J-0.06
G3 X0.4009 Y0.5124 I0.0055 J-0.0623
G3 X0.3825 Y0.4986 I0.0277 J-0.056
G3 X0.3703 Y0.479 I0.0461 J-0.0422
G3 X0.3661 Y0.4564 I0.0583 J-0.0226
G3 X0.3703 Y0.4337 I0.0625 J0
G3 X0.3825 Y0.4142 I0.0583 J0.0226
G3 X0.4009 Y0.4003 I0.0461 J0.0422
G3 X0.4231 Y0.3941 I0.0277 J0.056
G3 X0.446 Y0.3964 I0.0055 J0.0623
G3 X0.4666 Y0.4068 I-0.0174 J0.06
G3 X0.482 Y0.4239 I-0.038 J0.0496
G2 X0.5353 Y0.4539 I0.0534 J-0.0325
G1 X2.2527 Y0.4539
G2 X2.3113 Y0.413 I0 J-0.0625
G3 X2.3332 Y0.3756 I0.1172 J0.0433
G3 X2.3665 Y0.3479 I0.0954 J0.0808
G3 X2.4072 Y0.3332 I0.0621 J0.1085
G3 X2.4506 Y0.3333 I0.0213 J0.1232
G3 X2.4913 Y0.3482 I-0.022 J0.123
G3 X2.5244 Y0.3762 I-0.0627 J0.1081
G3 X2.5461 Y0.4137 I-0.0959 J0.0802
G3 X2.5536 Y0.4564 I-0.1175 J0.0427
G3 X2.5461 Y0.4991 I-0.125 J0
G3 X2.5244 Y0.5366 I-0.1175 J-0.0427
G3 X2.4913 Y0.5645 I-0.0959 J-0.0802
G3 X2.4506 Y0.5794 I-0.0627 J-0.1081
G3 X2.4072 Y0.5795 I-0.022 J-0.123
G3 X2.3665 Y0.5649 I0.0213 J-0.1232
G3 X2.3332 Y0.5371 I0.0621 J-0.1085
G3 X2.3113 Y0.4997 I0.0954 J-0.0808
G0 Z0.25
G0 X0.4435 Y0.4564
G1 Z-0.25 F8
G2 X0.4392 Y0.4629 I0.0918 J0.065 F12
G3 X0.4362 Y0.4663 I-0.0107 J-0.0065
G3 X0.4321 Y0.4684 I-0.0076 J-0.0099
G3 X0.4275 Y0.4688 I-0.0035 J-0.012
G3 X0.423 Y0.4676 I0.0011 J-0.0125
G3 X0.4194 Y0.4648 I0.0055 J-0.0112
G3 X0.4169 Y0.4609 I0.0092 J-0.0084
G3 X0.4161 Y0.4564 I0.0117 J-0.0045
G3 X0.4169 Y0.4519 I0.0125 J0
G3 X0.4194 Y0.4479 I0.0117 J0.0045
G3 X0.423 Y0.4452 I0.0092 J0.0084
G3 X0.4275 Y0.4439 I0.0055 J0.0112
G3 X0.4321 Y0.4444 I0.0011 J0.0125
G3 X0.4362 Y0.4465 I-0.0035 J0.012
G3 X0.4392 Y0.4499 I-0.0076 J0.0099
G2 X0.4435 Y0.4564 I0.0961 J-0.0585
G0 Z0.25
G0 X2.4051 Y0.465
G1 Z-0.3 F8
G2 X2.4016 Y0.4564 I-0.1524 J0.0563 F12
G2 X2.4051 Y0.4477 I-0.1489 J-0.065
G3 X2.4095 Y0.4402 I0.0234 J0.0087
G3 X2.4162 Y0.4347 I0.0191 J0.0162
G3 X2.4243 Y0.4317 I0.0124 J0.0217
G3 X2.433 Y0.4318 I0.0043 J0.0246
G3 X2.4411 Y0.4348 I-0.0044 J0.0246
G3 X2.4477 Y0.4403 I-0.0125 J0.0216
G3 X2.4521 Y0.4478 I-0.0192 J0.016
G3 X2.4536 Y0.4564 I-0.0235 J0.0085
G3 X2.4521 Y0.4649 I-0.025 J0
G3 X2.4477 Y0.4724 I-0.0235 J-0.0085
G3 X2.4411 Y0.478 I-0.0192 J-0.016
G3 X2.433 Y0.481 I-0.0125 J-0.0216
G3 X2.4243 Y0.481 I-0.0044 J-0.0246
G3 X2.4162 Y0.4781 I0.0043 J-0.0246
G3 X2.4095 Y0.4725 I0.0124 J-0.0217
G3 X2.4051 Y0.465 I0.0191 J-0.0162
G1 X2.3582 Y0.4824 F12
G2 X2.3445 Y0.4564 I-0.1055 J0.039 F12
G2 X2.3582 Y0.4304 I-0.0918 J-0.065
G3 X2.3713 Y0.4079 I0.0703 J0.026
G3 X2.3913 Y0.3913 I0.0572 J0.0485
G3 X2.4158 Y0.3825 I0.0373 J0.0651
G3 X2.4418 Y0.3826 I0.0128 J0.0739
G3 X2.4662 Y0.3915 I-0.0132 J0.0738
G3 X2.4861 Y0.4082 I-0.0376 J0.0649
G3 X2.4991 Y0.4308 I-0.0575 J0.0481
G3 X2.5036 Y0.4564 I-0.0705 J0.0256
G3 X2.4991 Y0.482 I-0.075 J0
G3 X2.4861 Y0.5045 I-0.0705 J-0.0256
G3 X2.4662 Y0.5213 I-0.0575 J-0.0481
G3 X2.4418 Y0.5302 I-0.0376 J-0.0649
G3 X2.4158 Y0.5303 I-0.0132 J-0.0738
G3 X2.3913 Y0.5215 I0.0128 J-0.0739
G3 X2.3713 Y0.5048 I0.0373 J-0.0651
G3 X2.3582 Y0.4824 I0.0572 J-0.0485
G1 X2.3113 Y0.4997 F12
G2 X2.2527 Y0.4589 I-0.0586 J0.0217 F12
G1 X0.5353 Y0.4589
G2 X0.482 Y0.4889 I0 J0.0625
G3 X0.4666 Y0.506 I-0.0534 J-0.0325
G3 X0.446 Y0.5164 I-0.038 J-0.0496
G3 X0.4231 Y0.5186 I-0.0174 J-0.06
G3 X0.4009 Y0.5124 I0.0055 J-0.0623
G3 X0.3825 Y0.4986 I0.0277 J-0.056
G3 X0.3703 Y0.479 I0.0461 J-0.0422
G3 X0.3661 Y0.4564 I0.0583 J-0.0226
G3 X0.3703 Y0.4337 I0.0625 J0
G3 X0.3825 Y0.4142 I0.0583 J0.0226
G3 X0.4009 Y0.4003 I0.0461 J0.0422
G3 X0.4231 Y0.3941 I0.0277 J0.056
G3 X0.446 Y0.3964 I0.0055 J0.0623
G3 X0.4666 Y0.4068 I-0.0174 J0.06
G3 X0.482 Y0.4239 I-0.038 J0.0496
G2 X0.5353 Y0.4539 I0.0534 J-0.0325
G1 X2.2527 Y0.4539
G2 X2.3113 Y0.413 I0 J-0.0625
G3 X2.3332 Y0.3756 I0.1172 J0.0433
G3 X2.3665 Y0.3479 I0.0954 J0.0808
G3 X2.4072 Y0.3332 I0.0621 J0.1085
G3 X2.4506 Y0.3333 I0.0213 J0.1232
G3 X2.4913 Y0.3482 I-0.022 J0.123
G3 X2.5244 Y0.3762 I-0.0627 J0.1081
G3 X2.5461 Y0.4137 I-0.0959 J0.0802
G3 X2.5536 Y0.4564 I-0.1175 J0.0427
G3 X2.5461 Y0.4991 I-0.125 J0
G3 X2.5244 Y0.5366 I-0.1175 J-0.0427
G3 X2.4913 Y0.5645 I-0.0959 J-0.0802
G3 X2.4506 Y0.5794 I-0.0627 J-0.1081
G3 X2.4072 Y0.5795 I-0.022 J-0.123
G3 X2.3665 Y0.5649 I0.0213 J-0.1232
G3 X2.3332 Y0.5371 I0.0621 J-0.1085
G3 X2.3113 Y0.4997 I0.0954 J-0.0808
G0 Z0.25
G0 X0.4435 Y0.4564
G1 Z-0.3 F8
G2 X0.4392 Y0.4629 I0.0918 J0.065 F12
G3 X0.4362 Y0.4663 I-0.0107 J-0.0065
G3 X0.4321 Y0.4684 I-0.0076 J-0.0099
G3 X0.4275 Y0.4688 I-0.0035 J-0.012
G3 X0.423 Y0.4676 I0.0011 J-0.0125
G3 X0.4194 Y0.4648 I0.0055 J-0.0112
G3 X0.4169 Y0.4609 I0.0092 J-0.0084
G3 X0.4161 Y0.4564 I0.0117 J-0.0045
G3 X0.4169 Y0.4519 I0.0125 J0
G3 X0.4194 Y0.4479 I0.0117 J0.0045
G3 X0.423 Y0.4452 I0.0092 J0.0084
G3 X0.4275 Y0.4439 I0.0055 J0.0112
G3 X0.4321 Y0.4444 I0.0011 J0.0125
G3 X0.4362 Y0.4465 I-0.0035 J0.012
G3 X0.4392 Y0.4499 I-0.0076 J0.0099
G2 X0.4435 Y0.4564 I0.0961 J-0.0585
G0 Z0.25
G0 X2.4051 Y0.465
G1 Z-0.35 F8
G2 X2.4016 Y0.4564 I-0.1524 J0.0563 F12
G2 X2.4051 Y0.4477 I-0.1489 J-0.065
G3 X2.4095 Y0.4402 I0.0234 J0.0087
G3 X2.4162 Y0.4347 I0.0191 J0.0162
G3 X2.4243 Y0.4317 I0.0124 J0.0217
G3 X2.433 Y0.4318 I0.0043 J0.0246
G3 X2.4411 Y0.4348 I-0.0044 J0.0246
G3 X2.4477 Y0.4403 I-0.0125 J0.0216
G3 X2.4521 Y0.4478 I-0.0192 J0.016
G3 X2.4536 Y0.4564 I-0.0235 J0.0085
G3 X2.4521 Y0.4649 I-0.025 J0
G3 X2.4477 Y0.4724 I-0.0235 J-0.0085
G3 X2.4411 Y0.478 I-0.0192 J-0.016
G3 X2.433 Y0.481 I-0.0125 J-0.0216
G3 X2.4243 Y0.481 I-0.0044 J-0.0246
G3 X2.4162 Y0.4781 I0.0043 J-0.0246
G3 X2.4095 Y0.4725 I0.0124 J-0.0217
G3 X2.4051 Y0.465 I0.0191 J-0.0162
G1 X2.3582 Y0.4824 F12
G2 X2.3445 Y0.4564 I-0.1055 J0.039 F12
G2 X2.3582 Y0.4304 I-0.0918 J-0.065
G3 X2.3713 Y0.4079 I0.0703 J0.026
G3 X2.3913 Y0.3913 I0.0572 J0.0485
G3 X2.4158 Y0.3825 I0.0373 J0.0651
G3 X2.4418 Y0.3826 I0.0128 J0.0739
G3 X2.4662 Y0.3915 I-0.0132 J0.0738
G3 X2.4861 Y0.4082 I-0.0376 J0.0649
G3 X2.4991 Y0.4308 I-0.0575 J0.0481
G3 X2.5036 Y0.4564 I-0.0705 J0.0256
G3 X2.4991 Y0.482 I-0.075 J0
G3 X2.4861 Y0.5045 I-0.0705 J-0.0256
G3 X2.4662 Y0.5213 I-0.0575 J-0.0481
G3 X2.4418 Y0.5302 I-0.0376 J-0.0649
G3 X2.4158 Y0.5303 I-0.0132 J-0.0738
G3 X2.3913 Y0.5215 I0.0128 J-0.0739
G3 X2.3713 Y0.5048 I0.0373 J-0.0651
G3 X2.3582 Y0.4824 I0.0572 J-0.0485
G1 X2.3113 Y0.4997 F12
G2 X2.2527 Y0.4589 I-0.0586 J0.0217 F12
G1 X0.5353 Y0.4589
G2 X0.482 Y0.4889 I0 J0.0625
G3 X0.4666 Y0.506 I-0.0534 J-0.0325
G3 X0.446 Y0.5164 I-0.038 J-0.0496
G3 X0.4231 Y0.5186 I-0.0174 J-0.06
G3 X0.4009 Y0.5124 I0.0055 J-0.0623
G3 X0.3825 Y0.4986 I0.0277 J-0.056
G3 X0.3703 Y0.479 I0.0461 J-0.0422
G3 X0.3661 Y0.4564 I0.0583 J-0.0226
G3 X0.3703 Y0.4337 I0.0625 J0
G3 X0.3825 Y0.4142 I0.0583 J0.0226
G3 X0.4009 Y0.4003 I0.0461 J0.0422
G3 X0.4231 Y0.3941 I0.0277 J0.056
G3 X0.446 Y0.3964 I0.0055 J0.0623
G3 X0.4666 Y0.4068 I-0.0174 J0.06
G3 X0.482 Y0.4239 I-0.038 J0.0496
G2 X0.5353 Y0.4539 I0.0534 J-0.0325
G1 X2.2527 Y0.4539
G2 X2.3113 Y0.413 I0 J-0.0625
G3 X2.3332 Y0.3756 I0.1172 J0.0433
G3 X2.3665 Y0.3479 I0.0954 J0.0808
G3 X2.4072 Y0.3332 I0.0621 J0.1085
G3 X2.4506 Y0.3333 I0.0213 J0.1232
G3 X2.4913 Y0.3482 I-0.022 J0.123
G3 X2.5244 Y0.3762 I-0.0627 J0.1081
G3 X2.5461 Y0.4137 I-0.0959 J0.0802
G3 X2.5536 Y0.4564 I-0.1175 J0.0427
G3 X2.5461 Y0.4991 I-0.125 J0
G3 X2.5244 Y0.5366 I-0.1175 J-0.0427
G3 X2.4913 Y0.5645 I-0.0959 J-0.0802
G3 X2.4506 Y0.5794 I-0.0627 J-0.1081
G3 X2.4072 Y0.5795 I-0.022 J-0.123
G3 X2.3665 Y0.5649 I0.0213 J-0.1232
G3 X2.3332 Y0.5371 I0.0621 J-0.1085
G3 X2.3113 Y0.4997 I0.0954 J-0.0808
G0 Z0.25
G0 X0.4435 Y0.4564
G1 Z-0.35 F8
G2 X0.4392 Y0.4629 I0.0918 J0.065 F12
G3 X0.4362 Y0.4663 I-0.0107 J-0.0065
G3 X0.4321 Y0.4684 I-0.0076 J-0.0099
G3 X0.4275 Y0.4688 I-0.0035 J-0.012
G3 X0.423 Y0.4676 I0.0011 J-0.0125
G3 X0.4194 Y0.4648 I0.0055 J-0.0112
G3 X0.4169 Y0.4609 I0.0092 J-0.0084
G3 X0.4161 Y0.4564 I0.0117 J-0.0045
G3 X0.4169 Y0.4519 I0.0125 J0
G3 X0.4194 Y0.4479 I0.0117 J0.0045
G3 X0.423 Y0.4452 I0.0092 J0.0084
G3 X0.4275 Y0.4439 I0.0055 J0.0112
G3 X0.4321 Y0.4444 I0.0011 J0.0125
G3 X0.4362 Y0.4465 I-0.0035 J0.012
G3 X0.4392 Y0.4499 I-0.0076 J0.0099
G2 X0.4435 Y0.4564 I0.0961 J-0.0585
G0 Z0.25
G0 X2.4051 Y0.465
G1 Z-0.4 F8
G2 X2.4016 Y0.4564 I-0.1524 J0.0563 F12
G2 X2.4051 Y0.4477 I-0.1489 J-0.065
G3 X2.4095 Y0.4402 I0.0234 J0.0087
G3 X2.4162 Y0.4347 I0.0191 J0.0162
G3 X2.4243 Y0.4317 I0.0124 J0.0217
G3 X2.433 Y0.4318 I0.0043 J0.0246
G3 X2.4411 Y0.4348 I-0.0044 J0.0246
G3 X2.4477 Y0.4403 I-0.0125 J0.0216
G3 X2.4521 Y0.4478 I-0.0192 J0.016
G3 X2.4536 Y0.4564 I-0.0235 J0.0085
G3 X2.4521 Y0.4649 I-0.025 J0
G3 X2.4477 Y0.4724 I-0.0235 J-0.0085
G3 X2.4411 Y0.478 I-0.0192 J-0.016
G3 X2.433 Y0.481 I-0.0125 J-0.0216
G3 X2.4243 Y0.481 I-0.0044 J-0.0246
G3 X2.4162 Y0.4781 I0.0043 J-0.0246
G3 X2.4095 Y0.4725 I0.0124 J-0.0217
G3 X2.4051 Y0.465 I0.0191 J-0.0162
G1 X2.3582 Y0.4824 F12
G2 X2.3445 Y0.4564 I-0.1055 J0.039 F12
G2 X2.3582 Y0.4304 I-0.0918 J-0.065
G3 X2.3713 Y0.4079 I0.0703 J0.026
G3 X2.3913 Y0.3913 I0.0572 J0.0485
G3 X2.4158 Y0.3825 I0.0373 J0.0651
G3 X2.4418 Y0.3826 I0.0128 J0.0739
G3 X2.4662 Y0.3915 I-0.0132 J0.0738
G3 X2.4861 Y0.4082 I-0.0376 J0.0649
G3 X2.4991 Y0.4308 I-0.0575 J0.0481
G3 X2.5036 Y0.4564 I-0.0705 J0.0256
G3 X2.4991 Y0.482 I-0.075 J0
G3 X2.4861 Y0.5045 I-0.0705 J-0.0256
G3 X2.4662 Y0.5213 I-0.0575 J-0.0481
G3 X2.4418 Y0.5302 I-0.0376 J-0.0649
G3 X2.4158 Y0.5303 I-0.0132 J-0.0738
G3 X2.3913 Y0.5215 I0.0128 J-0.0739
G3 X2.3713 Y0.5048 I0.0373 J-0.0651
G3 X2.3582 Y0.4824 I0.0572 J-0.0485
G1 X2.3113 Y0.4997 F12
G2 X2.2527 Y0.4589 I-0.0586 J0.0217 F12
G1 X0.5353 Y0.4589
G2 X0.482 Y0.4889 I0 J0.0625
G3 X0.4666 Y0.506 I-0.0534 J-0.0325
G3 X0.446 Y0.5164 I-0.038 J-0.0496
G3 X0.4231 Y0.5186 I-0.0174 J-0.06
G3 X0.4009 Y0.5124 I0.0055 J-0.0623
G3 X0.3825 Y0.4986 I0.0277 J-0.056
G3 X0.3703 Y0.479 I0.0461 J-0.0422
G3 X0.3661 Y0.4564 I0.0583 J-0.0226
G3 X0.3703 Y0.4337 I0.0625 J0
G3 X0.3825 Y0.4142 I0.0583 J0.0226
G3 X0.4009 Y0.4003 I0.0461 J0.0422
G3 X0.4231 Y0.3941 I0.0277 J0.056
G3 X0.446 Y0.3964 I0.0055 J0.0623
G3 X0.4666 Y0.4068 I-0.0174 J0.06
G3 X0.482 Y0.4239 I-0.038 J0.0496
G2 X0.5353 Y0.4539 I0.0534 J-0.0325
G1 X2.2527 Y0.4539
G2 X2.3113 Y0.413 I0 J-0.0625
G3 X2.3332 Y0.3756 I0.1172 J0.0433
G3 X2.3665 Y0.3479 I0.0954 J0.0808
G3 X2.4072 Y0.3332 I0.0621 J0.1085
G3 X2.4506 Y0.3333 I0.0213 J0.1232
G3 X2.4913 Y0.3482 I-0.022 J0.123
G3 X2.5244 Y0.3762 I-0.0627 J0.1081
G3 X2.5461 Y0.4137 I-0.0959 J0.0802
G3 X2.5536 Y0.4564 I-0.1175 J0.0427
G3 X2.5461 Y0.4991 I-0.125 J0
G3 X2.5244 Y0.5366 I-0.1175 J-0.0427
G3 X2.4913 Y0.5645 I-0.0959 J-0.0802
G3 X2.4506 Y0.5794 I-0.0627 J-0.1081
G3 X2.4072 Y0.5795 I-0.022 J-0.123
G3 X2.3665 Y0.5649 I0.0213 J-0.1232
G3 X2.3332 Y0.5371 I0.0621 J-0.1085
G3 X2.3113 Y0.4997 I0.0954 J-0.0808
G0 Z0.25
G0 X0.4435 Y0.4564
G1 Z-0.4 F8
G2 X0.4392 Y0.4629 I0.0918 J0.065 F12
G3 X0.4362 Y0.4663 I-0.0107 J-0.0065
G3 X0.4321 Y0.4684 I-0.0076 J-0.0099
G3 X0.4275 Y0.4688 I-0.0035 J-0.012
G3 X0.423 Y0.4676 I0.0011 J-0.0125
G3 X0.4194 Y0.4648 I0.0055 J-0.0112
G3 X0.4169 Y0.4609 I0.0092 J-0.0084
G3 X0.4161 Y0.4564 I0.0117 J-0.0045
G3 X0.4169 Y0.4519 I0.0125 J0
G3 X0.4194 Y0.4479 I0.0117 J0.0045
G3 X0.423 Y0.4452 I0.0092 J0.0084
G3 X0.4275 Y0.4439 I0.0055 J0.0112
G3 X0.4321 Y0.4444 I0.0011 J0.0125
G3 X0.4362 Y0.4465 I-0.0035 J0.012
G3 X0.4392 Y0.4499 I-0.0076 J0.0099
G2 X0.4435 Y0.4564 I0.0961 J-0.0585
G0 Z0.25
G0 X2.4051 Y0.465
G1 Z-0.45 F8
G2 X2.4016 Y0.4564 I-0.1524 J0.0563 F12
G2 X2.4051 Y0.4477 I-0.1489 J-0.065
G3 X2.4095 Y0.4402 I0.0234 J0.0087
G3 X2.4162 Y0.4347 I0.0191 J0.0162
G3 X2.4243 Y0.4317 I0.0124 J0.0217
G3 X2.433 Y0.4318 I0.0043 J0.0246
G3 X2.4411 Y0.4348 I-0.0044 J0.0246
G3 X2.4477 Y0.4403 I-0.0125 J0.0216
G3 X2.4521 Y0.4478 I-0.0192 J0.016
G3 X2.4536 Y0.4564 I-0.0235 J0.0085
G3 X2.4521 Y0.4649 I-0.025 J0
G3 X2.4477 Y0.4724 I-0.0235 J-0.0085
G3 X2.4411 Y0.478 I-0.0192 J-0.016
G3 X2.433 Y0.481 I-0.0125 J-0.0216
G3 X2.4243 Y0.481 I-0.0044 J-0.0246
G3 X2.4162 Y0.4781 I0.0043 J-0.0246
G3 X2.4095 Y0.4725 I0.0124 J-0.0217
G3 X2.4051 Y0.465 I0.0191 J-0.0162
G1 X2.3582 Y0.4824 F12
G2 X2.3445 Y0.4564 I-0.1055 J0.039 F12
G2 X2.3582 Y0.4304 I-0.0918 J-0.065
G3 X2.3713 Y0.4079 I0.0703 J0.026
G3 X2.3913 Y0.3913 I0.0572 J0.0485
G3 X2.4158 Y0.3825 I0.0373 J0.0651
G3 X2.4418 Y0.3826 I0.0128 J0.0739
G3 X2.4662 Y0.3915 I-0.0132 J0.0738
G3 X2.4861 Y0.4082 I-0.0376 J0.0649
G3 X2.4991 Y0.4308 I-0.0575 J0.0481
G3 X2.5036 Y0.4564 I-0.0705 J0.0256
G3 X2.4991 Y0.482 I-0.075 J0
G3 X2.4861 Y0.5045 I-0.0705 J-0.0256
G3 X2.4662 Y0.5213 I-0.0575 J-0.0481
G3 X2.4418 Y0.5302 I-0.0376 J-0.0649
G3 X2.4158 Y0.5303 I-0.0132 J-0.0738
G3 X2.3913 Y0.5215 I0.0128 J-0.0739
G3 X2.3713 Y0.5048 I0.0373 J-0.0651
G3 X2.3582 Y0.4824 I0.0572 J-0.0485
G1 X2.3113 Y0.4997 F12
G2 X2.2527 Y0.4589 I-0.0586 J0.0217 F12
G1 X0.5353 Y0.4589
G2 X0.482 Y0.4889 I0 J0.0625
G3 X0.4666 Y0.506 I-0.0534 J-0.0325
G3 X0.446 Y0.5164 I-0.038 J-0.0496
G3 X0.4231 Y0.5186 I-0.0174 J-0.06
G3 X0.4009 Y0.5124 I0.0055 J-0.0623
G3 X0.3825 Y0.4986 I0.0277 J-0.056
G3 X0.3703 Y0.479 I0.0461 J-0.0422
G3 X0.3661 Y0.4564 I0.0583 J-0.0226
G3 X0.3703 Y0.4337 I0.0625 J0
G3 X0.3825 Y0.4142 I0.0583 J0.0226
G3 X0.4009 Y0.4003 I0.0461 J0.0422
G3 X0.4231 Y0.3941 I0.0277 J0.056
G3 X0.446 Y0.3964 I0.0055 J0.0623
G3 X0.4666 Y0.4068 I-0.0174 J0.06
G3 X0.482 Y0.4239 I-0.038 J0.0496
G2 X0.5353 Y0.4539 I0.0534 J-0.0325
G1 X2.2527 Y0.4539
G2 X2.3113 Y0.413 I0 J-0.0625
G3 X2.3332 Y0.3756 I0.1172 J0.0433
G3 X2.3665 Y0.3479 I0.0954 J0.0808
G3 X2.4072 Y0.3332 I0.0621 J0.1085
G3 X2.4506 Y0.3333 I0.0213 J0.1232
G3 X2.4913 Y0.3482 I-0.022 J0.123
G3 X2.5244 Y0.3762 I-0.0627 J0.1081
G3 X2.5461 Y0.4137 I-0.0959 J0.0802
G3 X2.5536 Y0.4564 I-0.1175 J0.0427
G3 X2.5461 Y0.4991 I-0.125 J0
G3 X2.5244 Y0.5366 I-0.1175 J-0.0427
G3 X2.4913 Y0.5645 I-0.0959 J-0.0802
G3 X2.4506 Y0.5794 I-0.0627 J-0.1081
G3 X2.4072 Y0.5795 I-0.022 J-0.123
G3 X2.3665 Y0.5649 I0.0213 J-0.1232
G3 X2.3332 Y0.5371 I0.0621 J-0.1085
G3 X2.3113 Y0.4997 I0.0954 J-0.0808
G0 Z0.25
G0 X0.4435 Y0.4564
G1 Z-0.45 F8
G2 X0.4392 Y0.4629 I0.0918 J0.065 F12
G3 X0.4362 Y0.4663 I-0.0107 J-0.0065
G3 X0.4321 Y0.4684 I-0.0076 J-0.0099
G3 X0.4275 Y0.4688 I-0.0035 J-0.012
G3 X0.423 Y0.4676 I0.0011 J-0.0125
G3 X0.4194 Y0.4648 I0.0055 J-0.0112
G3 X0.4169 Y0.4609 I0.0092 J-0.0084
G3 X0.4161 Y0.4564 I0.0117 J-0.0045
G3 X0.4169 Y0.4519 I0.0125 J0
G3 X0.4194 Y0.4479 I0.0117 J0.0045
G3 X0.423 Y0.4452 I0.0092 J0.0084
G3 X0.4275 Y0.4439 I0.0055 J0.0112
G3 X0.4321 Y0.4444 I0.0011 J0.0125
G3 X0.4362 Y0.4465 I-0.0035 J0.012
G3 X0.4392 Y0.4499 I-0.0076 J0.0099
G2 X0.4435 Y0.4564 I0.0961 J-0.0585

(profile 2)
G0 Z0.25
G0 X0.4286 Y0.0189
G1 Z-0.05 F8
G1 X2.4286 Y0.0189 F12
G3 X2.5588 Y0.0387 I0 J0.4375
G3 X2.612 Y0.0592 I-0.1303 J0.4177
G3 X2.6773 Y0.0965 I-0.1834 J0.3972
G3 X2.7732 Y0.1869 I-0.2487 J0.3599
G3 X2.822 Y0.2651 I-0.3446 J0.2695
G3 X2.8378 Y0.3017 I-0.3935 J0.1913
G3 X2.8653 Y0.4306 I-0.4092 J0.1547
G3 X2.8661 Y0.4564 I-0.4367 J0.0258
G3 X2.8532 Y0.5618 I-0.4375 J0
G3 X2.8025 Y0.6835 I-0.4246 J-0.1054
G3 X2.718 Y0.7845 I-0.374 J-0.2271
G1 X2.5053 Y0.972
G3 X2.4476 Y1.0068 I-0.124 J-0.1406
G3 X2.3813 Y1.0189 I-0.0663 J-0.1754
G1 X1.6045 Y1.0189
G1 X1.3045 Y1.0189
G1 X0.4758 Y1.0189
G3 X0.4095 Y1.0068 I0 J-0.1875
G3 X0.3518 Y0.972 I0.0663 J-0.1754
G1 X0.1392 Y0.7845
G3 X0.0546 Y0.6835 I0.2894 J-0.3281
G3 X0.004 Y0.5618 I0.374 J-0.2271
G3 X-0.0089 Y0.4564 I0.4246 J-0.1054
G3 X-0.0082 Y0.4306 I0.4375 J0
G3 X0.0193 Y0.3017 I0.4367 J0.0258
G3 X0.0494 Y0.2381 I0.4092 J0.1547
G3 X0.084 Y0.1869 I0.3792 J0.2183
G3 X0.1798 Y0.0965 I0.3446 J0.2695
G3 X0.2733 Y0.0474 I0.2487 J0.3599
G3 X0.2983 Y0.0387 I0.1552 J0.409
G3 X0.4286 Y0.0189 I0.1303 J0.4177
G1 Z-0.1 F8
G1 X2.4286 Y0.0189 F12
G3 X2.5588 Y0.0387 I0 J0.4375
G3 X2.612 Y0.0592 I-0.1303 J0.4177
G3 X2.6773 Y0.0965 I-0.1834 J0.3972
G3 X2.7732 Y0.1869 I-0.2487 J0.3599
G3 X2.822 Y0.2651 I-0.3446 J0.2695
G3 X2.8378 Y0.3017 I-0.3935 J0.1913
G3 X2.8653 Y0.4306 I-0.4092 J0.1547
G3 X2.8661 Y0.4564 I-0.4367 J0.0258
G3 X2.8532 Y0.5618 I-0.4375 J0
G3 X2.8025 Y0.6835 I-0.4246 J-0.1054
G3 X2.718 Y0.7845 I-0.374 J-0.2271
G1 X2.5053 Y0.972
G3 X2.4476 Y1.0068 I-0.124 J-0.1406
G3 X2.3813 Y1.0189 I-0.0663 J-0.1754
G1 X1.6045 Y1.0189
G1 X1.3045 Y1.0189
G1 X0.4758 Y1.0189
G3 X0.4095 Y1.0068 I0 J-0.1875
G3 X0.3518 Y0.972 I0.0663 J-0.1754
G1 X0.1392 Y0.7845
G3 X0.0546 Y0.6835 I0.2894 J-0.3281
G3 X0.004 Y0.5618 I0.374 J-0.2271
G3 X-0.0089 Y0.4564 I0.4246 J-0.1054
G3 X-0.0082 Y0.4306 I0.4375 J0
G3 X0.0193 Y0.3017 I0.4367 J0.0258
G3 X0.0494 Y0.2381 I0.4092 J0.1547
G3 X0.084 Y0.1869 I0.3792 J0.2183
G3 X0.1798 Y0.0965 I0.3446 J0.2695
G3 X0.2733 Y0.0474 I0.2487 J0.3599
G3 X0.2983 Y0.0387 I0.1552 J0.409
G3 X0.4286 Y0.0189 I0.1303 J0.4177
G1 Z-0.15 F8
G1 X2.4286 Y0.0189 F12
G3 X2.5588 Y0.0387 I0 J0.4375
G3 X2.612 Y0.0592 I-0.1303 J0.4177
G3 X2.6773 Y0.0965 I-0.1834 J0.3972
G3 X2.7732 Y0.1869 I-0.2487 J0.3599
G3 X2.822 Y0.2651 I-0.3446 J0.2695
G3 X2.8378 Y0.3017 I-0.3935 J0.1913
G3 X2.8653 Y0.4306 I-0.4092 J0.1547
G3 X2.8661 Y0.4564 I-0.4367 J0.0258
G3 X2.8532 Y0.5618 I-0.4375 J0
G3 X2.8025 Y0.6835 I-0.4246 J-0.1054
G3 X2.718 Y0.7845 I-0.374 J-0.2271
G1 X2.5053 Y0.972
G3 X2.4476 Y1.0068 I-0.124 J-0.1406
G3 X2.3813 Y1.0189 I-0.0663 J-0.1754
G1 X1.6045 Y1.0189
G1 X1.3045 Y1.0189
G1 X0.4758 Y1.0189
G3 X0.4095 Y1.0068 I0 J-0.1875
G3 X0.3518 Y0.972 I0.0663 J-0.1754
G1 X0.1392 Y0.7845
G3 X0.0546 Y0.6835 I0.2894 J-0.3281
G3 X0.004 Y0.5618 I0.374 J-0.2271
G3 X-0.0089 Y0.4564 I0.4246 J-0.1054
G3 X-0.0082 Y0.4306 I0.4375 J0
G3 X0.0193 Y0.3017 I0.4367 J0.0258
G3 X0.0494 Y0.2381 I0.4092 J0.1547
G3 X0.084 Y0.1869 I0.3792 J0.2183
G3 X0.1798 Y0.0965 I0.3446 J0.2695
G3 X0.2733 Y0.0474 I0.2487 J0.3599
G3 X0.2983 Y0.0387 I0.1552 J0.409
G3 X0.4286 Y0.0189 I0.1303 J0.4177
G1 Z-0.2 F8
G1 X2.4286 Y0.0189 F12
G3 X2.5588 Y0.0387 I0 J0.4375
G3 X2.612 Y0.0592 I-0.1303 J0.4177
G3 X2.6773 Y0.0965 I-0.1834 J0.3972
G3 X2.7732 Y0.1869 I-0.2487 J0.3599
G3 X2.822 Y0.2651 I-0.3446 J0.2695
G3 X2.8378 Y0.3017 I-0.3935 J0.1913
G3 X2.8653 Y0.4306 I-0.4092 J0.1547
G3 X2.8661 Y0.4564 I-0.4367 J0.0258
G3 X2.8532 Y0.5618 I-0.4375 J0
G3 X2.8025 Y0.6835 I-0.4246 J-0.1054
G3 X2.718 Y0.7845 I-0.374 J-0.2271
G1 X2.5053 Y0.972
G3 X2.4476 Y1.0068 I-0.124 J-0.1406
G3 X2.3813 Y1.0189 I-0.0663 J-0.1754
G1 X1.6045 Y1.0189
G1 X1.3045 Y1.0189
G1 X0.4758 Y1.0189
G3 X0.4095 Y1.0068 I0 J-0.1875
G3 X0.3518 Y0.972 I0.0663 J-0.1754
G1 X0.1392 Y0.7845
G3 X0.0546 Y0.6835 I0.2894 J-0.3281
G3 X0.004 Y0.5618 I0.374 J-0.2271
G3 X-0.0089 Y0.4564 I0.4246 J-0.1054
G3 X-0.0082 Y0.4306 I0.4375 J0
G3 X0.0193 Y0.3017 I0.4367 J0.0258
G3 X0.0494 Y0.2381 I0.4092 J0.1547
G3 X0.084 Y0.1869 I0.3792 J0.2183
G3 X0.1798 Y0.0965 I0.3446 J0.2695
G3 X0.2733 Y0.0474 I0.2487 J0.3599
G3 X0.2983 Y0.0387 I0.1552 J0.409
G3 X0.4286 Y0.0189 I0.1303 J0.4177
G1 Z-0.25 F8
G1 X2.4286 Y0.0189 F12
G3 X2.5588 Y0.0387 I0 J0.4375
G3 X2.612 Y0.0592 I-0.1303 J0.4177
G3 X2.6773 Y0.0965 I-0.1834 J0.3972
G3 X2.7732 Y0.1869 I-0.2487 J0.3599
G3 X2.822 Y0.2651 I-0.3446 J0.2695
G3 X2.8378 Y0.3017 I-0.3935 J0.1913
G3 X2.8653 Y0.4306 I-0.4092 J0.1547
G3 X2.8661 Y0.4564 I-0.4367 J0.0258
G3 X2.8532 Y0.5618 I-0.4375 J0
G3 X2.8025 Y0.6835 I-0.4246 J-0.1054
G3 X2.718 Y0.7845 I-0.374 J-0.2271
G1 X2.5053 Y0.972
G3 X2.4476 Y1.0068 I-0.124 J-0.1406
G3 X2.3813 Y1.0189 I-0.0663 J-0.1754
G1 X1.6045 Y1.0189
G1 X1.3045 Y1.0189
G1 X0.4758 Y1.0189
G3 X0.4095 Y1.0068 I0 J-0.1875
G3 X0.3518 Y0.972 I0.0663 J-0.1754
G1 X0.1392 Y0.7845
G3 X0.0546 Y0.6835 I0.2894 J-0.3281
G3 X0.004 Y0.5618 I0.374 J-0.2271
G3 X-0.0089 Y0.4564 I0.4246 J-0.1054
G3 X-0.0082 Y0.4306 I0.4375 J0
G3 X0.0193 Y0.3017 I0.4367 J0.0258
G3 X0.0494 Y0.2381 I0.4092 J0.1547
G3 X0.084 Y0.1869 I0.3792 J0.2183
G3 X0.1798 Y0.0965 I0.3446 J0.2695
G3 X0.2733 Y0.0474 I0.2487 J0.3599
G3 X0.2983 Y0.0387 I0.1552 J0.409
G3 X0.4286 Y0.0189 I0.1303 J0.4177
G1 Z-0.3 F8
G1 X2.4286 Y0.0189 F12
G3 X2.5588 Y0.0387 I0 J0.4375
G3 X2.612 Y0.0592 I-0.1303 J0.4177
G3 X2.6773 Y0.0965 I-0.1834 J0.3972
G3 X2.7732 Y0.1869 I-0.2487 J0.3599
G3 X2.822 Y0.2651 I-0.3446 J0.2695
G3 X2.8378 Y0.3017 I-0.3935 J0.1913
G3 X2.8653 Y0.4306 I-0.4092 J0.1547
G3 X2.8661 Y0.4564 I-0.4367 J0.0258
G3 X2.8532 Y0.5618 I-0.4375 J0
G3 X2.8025 Y0.6835 I-0.4246 J-0.1054
G3 X2.718 Y0.7845 I-0.374 J-0.2271
G1 X2.5053 Y0.972
G3 X2.4476 Y1.0068 I-0.124 J-0.1406
G3 X2.3813 Y1.0189 I-0.0663 J-0.1754
G1 X1.6045 Y1.0189
G1 X1.3045 Y1.0189
G1 X0.4758 Y1.0189
G3 X0.4095 Y1.0068 I0 J-0.1875
G3 X0.3518 Y0.972 I0.0663 J-0.1754
G1 X0.1392 Y0.7845
G3 X0.0546 Y0.6835 I0.2894 J-0.3281
G3 X0.004 Y0.5618 I0.374 J-0.2271
G3 X-0.0089 Y0.4564 I0.4246 J-0.1054
G3 X-0.0082 Y0.4306 I0.4375 J0
G3 X0.0193 Y0.3017 I0.4367 J0.0258
G3 X0.0494 Y0.2381 I0.4092 J0.1547
G3 X0.084 Y0.1869 I0.3792 J0.2183
G3 X0.1798 Y0.0965 I0.3446 J0.2695
G3 X0.2733 Y0.0474 I0.2487 J0.3599
G3 X0.2983 Y0.0387 I0.1552 J0.409
G3 X0.4286 Y0.0189 I0.1303 J0.4177
G1 Z-0.35 F8
G1 X2.4286 Y0.0189 F12
G3 X2.5588 Y0.0387 I0 J0.4375
G3 X2.612 Y0.0592 I-0.1303 J0.4177
G1 Z-0.3 F8
G3 X2.6773 Y0.0965 I-0.1834 J0.3972 F12
G3 X2.7732 Y0.1869 I-0.2487 J0.3599
G3 X2.822 Y0.2651 I-0.3446 J0.2695
G1 Z-0.35 F8
G3 X2.8378 Y0.3017 I-0.3935 J0.1913 F12
G3 X2.8653 Y0.4306 I-0.4092 J0.1547
G3 X2.8661 Y0.4564 I-0.4367 J0.0258
G3 X2.8532 Y0.5618 I-0.4375 J0
G3 X2.8025 Y0.6835 I-0.4246 J-0.1054
G3 X2.718 Y0.7845 I-0.374 J-0.2271
G1 X2.5053 Y0.972
G3 X2.4476 Y1.0068 I-0.124 J-0.1406
G3 X2.3813 Y1.0189 I-0.0663 J-0.1754
G1 X1.6045 Y1.0189
G1 Z-0.3 F8
G1 X1.3045 Y1.0189 F12
G1 Z-0.35 F8
G1 X0.4758 Y1.0189 F12
G3 X0.4095 Y1.0068 I0 J-0.1875
G3 X0.3518 Y0.972 I0.0663 J-0.1754
G1 X0.1392 Y0.7845
G3 X0.0546 Y0.6835 I0.2894 J-0.3281
G3 X0.004 Y0.5618 I0.374 J-0.2271
G3 X-0.0089 Y0.4564 I0.4246 J-0.1054
G3 X-0.0082 Y0.4306 I0.4375 J0
G3 X0.0193 Y0.3017 I0.4367 J0.0258
G3 X0.0494 Y0.2381 I0.4092 J0.1547
G1 Z-0.3 F8
G3 X0.084 Y0.1869 I0.3792 J0.2183 F12
G3 X0.1798 Y0.0965 I0.3446 J0.2695
G3 X0.2733 Y0.0474 I0.2487 J0.3599
G1 Z-0.35 F8
G3 X0.2983 Y0.0387 I0.1552 J0.409 F12
G3 X0.4286 Y0.0189 I0.1303 J0.4177
G1 Z-0.4 F8
G1 X2.4286 Y0.0189 F12
G3 X2.5588 Y0.0387 I0 J0.4375
G3 X2.612 Y0.0592 I-0.1303 J0.4177
G1 Z-0.3 F8
G3 X2.6773 Y0.0965 I-0.1834 J0.3972 F12
G3 X2.7732 Y0.1869 I-0.2487 J0.3599
G3 X2.822 Y0.2651 I-0.3446 J0.2695
G1 Z-0.4 F8
G3 X2.8378 Y0.3017 I-0.3935 J0.1913 F12
G3 X2.8653 Y0.4306 I-0.4092 J0.1547
G3 X2.8661 Y0.4564 I-0.4367 J0.0258
G3 X2.8532 Y0.5618 I-0.4375 J0
G3 X2.8025 Y0.6835 I-0.4246 J-0.1054
G3 X2.718 Y0.7845 I-0.374 J-0.2271
G1 X2.5053 Y0.972
G3 X2.4476 Y1.0068 I-0.124 J-0.1406
G3 X2.3813 Y1.0189 I-0.0663 J-0.1754
G1 X1.6045 Y1.0189
G1 Z-0.3 F8
G1 X1.3045 Y1.0189 F12
G1 Z-0.4 F8
G1 X0.4758 Y1.0189 F12
G3 X0.4095 Y1.0068 I0 J-0.1875
G3 X0.3518 Y0.972 I0.0663 J-0.1754
G1 X0.1392 Y0.7845
G3 X0.0546 Y0.6835 I0.2894 J-0.3281
G3 X0.004 Y0.5618 I0.374 J-0.2271
G3 X-0.0089 Y0.4564 I0.4246 J-0.1054
G3 X-0.0082 Y0.4306 I0.4375 J0
G3 X0.0193 Y0.3017 I0.4367 J0.0258
G3 X0.0494 Y0.2381 I0.4092 J0.1547
G1 Z-0.3 F8
G3 X0.084 Y0.1869 I0.3792 J0.2183 F12
G3 X0.1798 Y0.0965 I0.3446 J0.2695
G3 X0.2733 Y0.0474 I0.2487 J0.3599
G1 Z-0.4 F8
G3 X0.2983 Y0.0387 I0.1552 J0.409 F12
G3 X0.4286 Y0.0189 I0.1303 J0.4177
G1 Z-0.45 F8
G1 X2.4286 Y0.0189 F12
G3 X2.5588 Y0.0387 I0 J0.4375
G3 X2.612 Y0.0592 I-0.1303 J0.4177
G1 Z-0.3 F8
G3 X2.6773 Y0.0965 I-0.1834 J0.3972 F12
G3 X2.7732 Y0.1869 I-0.2487 J0.3599
G3 X2.822 Y0.2651 I-0.3446 J0.2695
G1 Z-0.45 F8
G3 X2.8378 Y0.3017 I-0.3935 J0.1913 F12
G3 X2.8653 Y0.4306 I-0.4092 J0.1547
G3 X2.8661 Y0.4564 I-0.4367 J0.0258
G3 X2.8532 Y0.5618 I-0.4375 J0
G3 X2.8025 Y0.6835 I-0.4246 J-0.1054
G3 X2.718 Y0.7845 I-0.374 J-0.2271
G1 X2.5053 Y0.972
G3 X2.4476 Y1.0068 I-0.124 J-0.1406
G3 X2.3813 Y1.0189 I-0.0663 J-0.1754
G1 X1.6045 Y1.0189
G1 Z-0.3 F8
G1 X1.3045 Y1.0189 F12
G1 Z-0.45 F8
G1 X0.4758 Y1.0189 F12
G3 X0.4095 Y1.0068 I0 J-0.1875
G3 X0.3518 Y0.972 I0.0663 J-0.1754
G1 X0.1392 Y0.7845
G3 X0.0546 Y0.6835 I0.2894 J-0.3281
G3 X0.004 Y0.5618 I0.374 J-0.2271
G3 X-0.0089 Y0.4564 I0.4246 J-0.1054
G3 X-0.0082 Y0.4306 I0.4375 J0
G3 X0.0193 Y0.3017 I0.4367 J0.0258
G3 X0.0494 Y0.2381 I0.4092 J0.1547
G1 Z-0.3 F8
G3 X0.084 Y0.1869 I0.3792 J0.2183 F12
G3 X0.1798 Y0.0965 I0.3446 J0.2695
G3 X0.2733 Y0.0474 I0.2487 J0.3599
G1 Z-0.45 F8
G3 X0.2983 Y0.0387 I0.1552 J0.409 F12
G3 X0.4286 Y0.0189 I0.1303 J0.4177
G0 Z0.25
M5
M30
